X:1
T:Title
%%score ( 1 2 ) { 3 | 4 }
L:1/8
M:4/4
K:Ab
V:1 treble nm="Grand Piano, Piano"
V:2 treble 
V:3 bass nm="Grand Piano, Piano"
V:4 bass 
V:1
 z4 z2[Q:1/4=100] [CE]2 | [CA]3 [CE] [CE]2 [CA]2 | [Ec]3 [DB] [CA]2 [EA]2 | z4 .B2 z2 | [CE]6 E2 | %5
w: 1.~I~|love~ to~ tell~ the~|sto * ry~ of~|things~|bove,~ of~|
 [GB]3 [_G=A] [=GB]2 [Gc]2 | z4 z2 .A2 | [Ae]3 [Ec] cB [EA]2 | [GB]6 [EB]2 | %9
w: Je sus~ and~ his~|of~|Je sus~ and~ * his~|love.~ I~|
 [EB]3 [Ec] [Ed]2 [Ed]2 | [Ed]2 [Ec]4 [Ec]2 | [Ac]3 [GB] [FA]2 [GB][FA] | [=EG]6 [EG]2 | %13
w: love~ to~ tell~ the~|sto ry,~ be|cause~ I~ know~ 'tis~ *|true;~ it~|
 F3 [EG] [FA]2 [DF]2 | [DF]2 [CE]4 [EA]2 | [GB]3 A [Ac]3 [EB] |[M:3/4] [EA]6 |[M:1/4] [CE]2 | %18
w: sa tis fies~ my~|long ings~ as~|noth ing~ else~ can~|do.~||
[M:4/4] E3 [EG] [EB]3 [Ec] | [EB]2 [EA]4 [EA]2 | [FA]3 [Fd] [Fd]2 [Fd]2 |[M:3/4] [Fd]2 [Ec]4 | %22
w: ||||
[M:1/4] [Ec]2 |[M:4/4] [Ae]3 [Ec] [Ec][DB]A-[EA] | [FB]2 [FA]4 [DF]2 | [CE]2 [EA]2 [GB]3 [EA] | %26
w: ||||
[M:3/4] [EA]6 |] %27
w: |
V:2
 x8 | x8 | x8 | [FA]3 [DF] F-[FA] [DF]2 | x8 | x8 | [EB]2 [EA]4 E-[Ec] | z4 E2 z2 | x8 | x8 | x8 | %11
w: |||* seen~ * * *|||* ry,~ * *|||||
 x8 | x8 | x8 | x8 | x8 |[M:3/4] x6 |[M:1/4] x2 |[M:4/4] x8 | x8 | x8 |[M:3/4] x6 |[M:1/4] x2 | %23
w: ||||||||||||
[M:4/4] z4 z2 .C2 | x8 | x8 |[M:3/4] x6 |] %27
w: ||||
V:3
 z4 z2 A,2 | E,3 A, A,2 A,2 | z4 A,2 A,2 | A,3 A, A,2 A,2 | A,6 A,2 | D3 C D2 E2 | D2 C4 C2 | %7
 C3 E ED C2 | E6[K:bass] G,2 | G,3 A, B,2 B,2 | B,2 A,4 A,2 | A,3 B,[K:treble] C2 C2 | C6 B,2 | %13
 A,3[K:bass] A, A,2 A,2 | A,2 A,4[K:treble] C2 | D3 C E3 D |[M:3/4] C6 |[M:1/4][K:bass] A,2 | %18
[M:4/4] G,3 B, D3 E | D2 C4 A,2 | A,3 A, A,2 A,2 |[M:3/4] A,2 A,4 |[M:1/4] A,2 | %23
[M:4/4] C3 A, A,G, A,2 | D2 D4 A,2 | A,2 C2 D3 C |[M:3/4] C6 |] %27
V:4
 z4 z2 A,,2 | A,,3 A,, A,,2 C,E, | A,4 A,,2 C,2 | D,3 D, D,2 D,2 | A,,6 A,,C, | E,3 E, E,2 E,2 | %6
 A,,2 A,,4 A,2 | A,3 A, A,2 A,2 | E,6 E,2 | E,3 E, E,2 E,2 | A,2 z2 z4 | F,3 F, F,2 F,2 | C,6 C,2 | %13
 D,3 D, D,2 D,2 | A,,2 A,,4 A,,2 | E,3 E, E,3 E, |[M:3/4] A,,6 |[M:1/4] A,,2 | %18
[M:4/4] E,3 E, E,3 E, | A,,2 A,,4 C,2 | D,3 D, D,2 D,2 |[M:3/4] A,,2 A,,4 |[M:1/4] z2 | %23
[M:4/4] A,3 A,, A,,B,, C,2 | D,2 D,4 D,2 | E,2 E,2 E,3 A,, |[M:3/4] A,,6 |] %27

